X: 77
T:Sailor's Hornpipe
M:4/4
L:1/8
C:British Isles
R:Hornpipe
K:G
gf|"G"g2G2G2 d-c|B-dgf g2 g^g|"A" a2 A2A2ag|"D"fedc d2 ef|!
"G"gfed edcB|"C"cBAG AGFE|"D"DEFG ABcA|[1"G"BAGF G2 ef:|[2"G" BAGF G2 dc
||!
"G"B-dgB- dgBg|"C"edc-B c2 c^c|"A"A-caA- caca|"D"fedc d2ef|!
gfed edcB|"C"cBAG AGFE|"D"DEFG ABcA|"G"BAGF G4|]
